!!!ONB: MCCC : IGH0546_01 : Extracted Monophonic Melody
!!!COM: Handel, George Frideric
!!!OPR: Violin Sonata in D major
!!!OMV: 1
!!!SCT: HWV 371 ; Op.1 No.13
!!!ODT: 1712///
**kern
*staff1
*clefG2
*k[f#c#g#]
*A:
*M4/4
8d
8f#
8a
2ee[
=2
8ee]
8a
8dd
8ff#
8.bb
16aa
16.gg
32ff#
16.ee
32dd
=3
16.cc#
32b
8a
16r
16aa
64bb
64aa
64bb
64aa
64bb
64aa
64gg
64aa
16.bb
32cc#
16.dd
32a
8.gg
16ff#
=4
4ff#
16r
16ff#
16.gg
32aa
16.ee
32ff#
16.gg
32aa
16.dd
32ff#
16.gg
32aa
=5
8cc#
8ee
16.ee[
32ee]
16cc#
32b
32a
48g
24f#[
8.f#]
8gg#
32ff#
32ee
32dd
32cc#
=6
48b
24a[
8.a]
8bb
32aa
32gg#
32ff#
32ee
8cc#
8ee
4ccc#[
=7
8ccc#]
32.aa
64gg#
32aa
32bb
4ccc#
16.ccc#
32ff#
64gg#
64ff#
64gg#
64ee
16ff#
8.ddd
32ccc#
32bb
=8
16.gg#
32ee
8bb[
16bb]
16ee
16.dd
32cc#
16.dd
32bb
16.cc#
32b
16.cc#
32aa
64b
64cc#
64b
64cc#
64b
64cc#
32a
=9
16g#
16e
8dd
16.dd[
32dd]
16.b
32dd
16cc#
16aa
16ff#
32ee
32dd
8cc#
64b
64cc#
64b
64cc#
64b
64cc#
32a
=10
4a
4r
2r
=11
1r
=12
8r
8A
8c#
8e
2b[
=13
8b]
8e
8a
8cc#
8.ff#
16ee
16.dd
32cc#
16.b
32a
=14
16.g#
32f#
8e
4gg#[
8gg#]
8b[
16b]
16bb
16.aa
32gg#
=15
8aa
8cc#
4ee[
16ee]
16gg
16.ff#
32ee
8.ccc#
16ee
=16
8dd
16.ddd
32ccc#
4bb[
16bb]
32r
32aa
32gg
32ff#
16ee
8dd
64cc#
64dd
64cc#
64dd
64cc#
64dd
32b
=17
8b
16.dd
32cc#
8cc#
16.ee
32dd
8.dd
64ee
64ff#
32gg
8.ee
16ff#
=18
8.ff#
16ccc#
8ddd
24ccc#
24bb
24aa#
8bb
4ff#
16.dd#
32ee
=19
8.ee
16bb
8.dd
16cc#
8.cc#
16aa
8.gg
16ff#
=20
8ff#
8d
8f#
8a
4cc[
16cc]
16aa
16ff#
16dd
=21
8b
8g
8b
8dd
8.bb
16aa
16.gg
32ff#
16.ee
32dd
=22
8cc#
8a
8cc#
8ee
8.ccc#
16bb
16.aa
32gg
16.ff#
32ee
=23
16.dd
32cc#
8dd
8r
8dd
4.gg
16ff#
16ee
=24
4.ff#
16ee
16dd
8cc#
8dd
8r
8g
=25
8.f#
16e
32e
32f#
64e
64f#
64e
64f#
64e
64f#
64e
64f#
16d
8.d
16a
16.g#
32b
8dd
=26
16r
16bb
16.ccc#
32ddd
8gg#
32r
32aa
32gg#
32ff#
32ee
32ff#
32gg#
32aa
32bb
32gg#
32aa
32ff#
32gg#
32aa
64gg#
64aa
64gg#
64aa
64gg#
64aa
32gg#
16aa
=27
2aa
2r
==
*-
